X:1
T:VARIAZIONI SUL TEMA NEL COR PIÚ NON MI SENTO
T:VARIAZIONI SUL TEMA NEL COR PIÚ NON MI SENTO
T:G.Bottesini
C:G.Bottesinni
L:1/8
Q:1/4=92
M:6/8
K:D
V:1 bass transpose=-12 nm="Contrabajo" snm="Cb."
V:1
"^Andante" z | z6 | z6 | z6 | z6 | z6 | z6 | z6 | z4 z[K:treble] (!>!a | f) z (!>!f e) z (!>!e | %10
 (d3 d)) z a | a z (!>!f g) z (b | e3- e) z (!>!e | f) z!<(! !>!f-{/g} g>.f.g!<)! | %14
 (a3 b)!>(!.g.f!>)! |!p! d z (d f) z (e | d3- d) z .A | .A z (!>!F ^D) z (B | (!>!A3 G)) z .G | %19
 .G z (!>!E C) z (A | (!>!G3 F)) z (F | ^G) z!<(! .G{/G-} G>.F.G!<)! | (A3 A) !fermata!z!pp! (a | %23
 g) z (g f) z (f | (e3 e)) z (!>!e | f) z!<(! (f{/g} g>)fg!<)! | (a3!>(! b).g.e!>)! | %27
!p! d z (d f) z (e | d3- d) z[K:bass] ((A | F/)^E/F/A/G/F/){/E} (=E/^D/E/G/F/E/) | %30
{/E} (D/C/D/B,/A,/F,/) (D,/F,/A,/D/).F/.A/ | (!>!AD,)((!>!F G)G,)((!>!B | %32
 E/)A,/^G,/A,/_B,/=B,/ =C/^C/D/^D/E/^E/ | F/)(D,/F,/A,/!<(!D/)(F/ .G/)(E,/A,/C/E/)(G/!<)! | %34
 .A/)(F,/A,/D/[K:treble]F/)(A/ B/)(^A/B/F/G/)(E/ | %35
 D/d/)(.c/.c/.B/._B/) !>!A/[K:bass](A,/_B,/=B,/=C/^C/) | (D/A/).F/.D/.A,/.F,/ D, z .A | %37
 .A/(B,/^A,/B,/F/E/) .^D/(=C/B,/).=A,/.G,/.F,/ | .E,/(B,/^A,/B,/).C/.^D/ (E/D/).E/.G/.B/.E/ | %39
 .G/(A,/^G,/A,/E/D/) .C/(B,/A,/).=G,/.F,/.E,/ | %40
 .D,/(A,/^G,/A,/).B,/.C/ (D/C/).D/[K:treble].E/.F/.A/ | %41
 (^G/d/).d/.f/.f/e/ .b/[K:bass](E,/=F,/^F,/G,/^G,/) | .A,/(A,/^G,/A,/C/E/) !fermata!A2 ((A | %43
 G/)F/G/).B/.A/.G/({/G} (F/^E/)F/).A/.G/.F/ |{/F} (E/^D/E/).C/.=D/.B,/ .A,/(A,/B,/C/D/E/) | %45
!<(! .F/(D,/F,/A,/).D/(F/ G/)(E,/A,/C/).E/(G/!<)! | %46
 A/)(F,/A,/D/)[K:treble].F/((A/ B/)^A/B/).g/.f/.e/ | (A,/D/F/).A/.d/.f/ .a/(A,/_B,/=B,/=C/^C/) | %48
 (D/F/A/).d/.f/.a/ d'2 z | z6 | z6 | z6 | z2 z !fermata!z2[K:treble] (!>!a | %53
 f/)[K:bass](D,/4E,/4F,/).D,/[K:treble](f e/)[K:bass](A,,/4B,,/4C,/).A,,/[K:treble](!>!e | %54
 d/)[K:bass](D,/4E,/4F,/).D,/.A,/.F,/ D/A,/F/D/(A/[K:treble]a/) | %55
 a/[K:bass](D,/4E,/4F,/).D,/[K:treble](!>!f g/)[K:bass](G,/4A,/4B,/).G,/[K:treble](!>!b | %56
 e/)[K:bass](A,,/4B,,/4C,/).A,,/.A,/.A,,/ .C/.A,,/.E/.A,,/.A/.A,,/ | %57
[K:treble] f/[K:bass](D,/4E,/4F,/).D,/[K:treble].f/.d/ g/[K:bass](E,/4F,/4G,/).E,/[K:treble].g/.d/ | %58
 a/[K:bass](F,/4G,/4A,/).F,/[K:treble].a/.f/ !>!b/[K:bass]G,/[K:treble]!>!g/[K:bass]G,/[K:treble]!>!e/[K:bass]G,/ | %59
[K:treble] d/[K:bass](A,,/4D,/4F,/).A,/.D/.F/[K:treble] f/[K:bass](A,,/4B,,/4C,/).A,,/[K:treble]e/[K:bass].A,,/ | %60
[K:treble] d/(d/4A/4)[K:bass].F/.D/.A,/.F,/ !fermata!D,2 A | %61
 A/(B,,/4^A,,/4B,,/).^D,/.F,/.B,/ .^D/.B,/.F/.B,/.B/.B,/ | %62
 A/(E,/4^D,/4E,/).B,,/.C,/.D,/ .E,/.G,/.B,/.E/.F/.G/ | %63
 G/(A,,/4B,,/4C,/).A,,/.E,/.A,,/ .A,/.A,,/.E/.A,,/.A/.A,,/ | %64
 G/(D,/4C,/4D,/).A,,/.B,,/.C,/ .D,/.F,/.A,/.D/.F/.A/ | %65
 ^G/(B,,/4^A,,/4B,,/).D,/.E,/.^G,/ .B,/.D/.E/.G/[K:treble](!fermata!d/>G/) | %66
 TA3{!fermata!^G!fermata!A} !fermata!a2 (a | %67
 g/)[K:bass](A,,/4B,,/4C,/).A,,/[K:treble](!>!a f/)[K:bass](D,/4E,/4F,/).D,/[K:treble](!>!f | %68
 e/)[K:bass](A,,/4B,,/4C,/).A,,/.A,/.A,,/ .C/.A,,/.E/.A,,/.A/.A,,/ | %69
 f/[K:bass](D,/4E,/4F,/).D,/[K:treble].f/.d/ g/[K:bass](E,/4F,/4G,/).E,/[K:treble].g/.d/ | %70
 a/[K:bass](F,/4G,/4A,/).F,/[K:treble]a/d/ .b/[K:bass].G,/[K:treble].g/[K:bass].G,/[K:treble].e/[K:bass].G,/ | %71
[K:treble] d/[K:bass](A,,/4D,/4F,/).A,/.D/.F/[K:treble] f/[K:bass](A,,/4D,/4C,/).A,,/[K:treble]e/[K:bass]A,,/ | %72
 d/(D/4F/4A/).d/.f/.a/ d'2 z | z6 | z6 | z6 | z3 !fermata!z2[K:bass] A | %77
 (3(D,/F,/G,/(3A,/B,/C/(3D/E/F/)[K:treble] (3(G/C/D/(3E/F/G/(3A/B/c/) | %78
 (3.d/.A/.d/(3.f/.d/.f/(3.a/.f/.a/ (3.d'/.a/.f/(3.d/.A/.F/[K:bass](3.D/.A,/.F,/ | %79
 (3(.D,/.F,/.G,/(3.A,/.B,/.C/(3.D/.E/.F/)[K:treble] (3.G,/.B,/.^D/(3.E/.G/.^A/(3(B/g/).f/ | %80
 (3.e/.A,/.C/(3.E/.C/.E/(3.A/.E/.A/ (3.c/.A/.c/(3.e/.c/.e/(3.a/.a/.g/ | %81
!<(! (3.f/.D/.F/(3.A/.d/.f/(3.f/.e/.d/ (3.g/.E/.A/(3.c/.e/.x/(3.g/.f/.e/!<)! | %82
 (3.a/.F/.A/(3.d/.f/.a/(3.a/.g/.f/ (3.b/.^a/.b/[Q:1/4=50]"^Largo".!fermata!g'[K:bass]!f! (3z/4[Q:1/4=187]"^Presto"!<(! (E,/4F,/4(3G,/4A,/4B,/4)!<)! | %83
 (3A,/D/F/[K:treble](3A/d/f/(3a/d'/f/ (3a/A,/C/(3E/A/c/(3e/a/c/ | %84
 (3d/a/f/(3d/A/F/[K:bass](3D/A,/F,/ D, !fermata!z A | %85
!<(! (3A/.B,,/.^D,/(3.F,/.A,/.=C/[K:treble](3.^D/.F/.A/ (3.=c/.B/.A/(3.A/.G/.F/(3.F/.E/.D/!<)! | %86
 (3.E/.^D/(E/(3G/)F/E/(3E/G/B/ !fermata!e2[K:bass] G | %87
[Q:1/4=92]"^Andante" (3G/.A,,/.C,/(3.E,/.G,/.A,/[K:treble](3.C/.E/.G/ (3.B/.A/.G/(3.G/.F/.E/(3.E/.D/.C/ | %88
 (3D/C/D/(3f/e/d/(3d/f/b/ !fermata!a2!f! (A | %89
 (3^G/).d/.c/(3.B/.B/.A/(3.G/.G/.A/ (3.E/.E/.^D/[K:bass](3!>!=D/!>!B,/!>!^G,/(3!>!E,/!>!D,/!>!B,,/ | %90
 A,,/A,/A,/[K:treble]A/A/a/ !fermata!a'2 (a | %91
 (3g/).A,/.B,/(3.C/.g/.a/(3.b/.a/.g/ (3.f/.D/.E/(3.F/.f/.g/(3.a/.g/.f/ | %92
 (3e/.A,/.C/(3.E/.C/.E/(3.A/.E/.A/ (3.c/.A/.c/(3.e/.c/.e/(3.a/.a/.g/ | %93
 (3f/.D/.F/(3.A/.d/.f/(3!>!f/.e/.d/ (3g/.E/.A/(3.c/.e/.g/(3!>!g/.f/.e/ | %94
 (3a/.F/.A/(3.d/.f/.a/(3!>!a/.g/.f/ (3.b/.^a/.b/!fermata!g' (3z/4[K:bass] (.E,/4.F,/4(3.G,/4.A,/4.B,/4) | %95
 (3.A,/D/F/[K:treble](3A/d/f/(3a/d'/f/ (3a/A,/C/(3E/A/c/(3e/a/A,/ |: %96
[K:bass] (6:4:6(A,/4D,/4F/4)(F/4D,/4A,/4)(6:4:6(A,/4D,/4F/4)(F/4D,/4A,/4)(6:4:6(A,/4D,/4F/4)(F/4D,/4A,/4) (6:4:6(A,/4D,/4F/4)(F/4D,/4A,/4)(6:4:6(A,/4D,/4F/4)(F/4D,/4A,/4)(6:4:6(A,/4D,/4F/4)(F/4D,/4A,/4) | %97
 (6:4:6(A,/4D,/4F/4)(F/4D,/4A,/4)(6:4:6(A,/4D,/4F/4)(F/4D,/4A,/4)(6:4:6(A,/4D,/4F/4)(F/4D,/4A,/4) (6:4:6(A,/4D,/4F/4)(F/4D,/4A,/4)(6:4:6(A,/4D,/4F/4)(F/4D,/4A,/4)(6:4:6(A,/4D,/4F/4)(F/4D,/4A,/4) | %98
 (6:4:6(A,/4D/4G/4)(G/4D/4A,/4)(6:4:6(A,/4D/4G/4)(G/4D/4A,/4)(6:4:6(A,/4D/4G/4)(G/4D/4A,/4) (6:4:6(A,/4D/4G/4)(G/4D/4A,/4)(6:4:6(_B,/4D/4G/4)(G/4D/4B,/4)(6:4:6(A,/4D/4F/4)(F/4D/4A,/4) | %99
 (6:4:6(A,,/4C/4G/4)(G/4C/4A,,/4)(6:4:6(A,,/4C/4G/4)(G/4C/4A,,/4)(6:4:6(A,,/4C/4G/4)(G/4C/4A,,/4) (6:4:6(A,,/4C/4G/4)(G/4C/4A,,/4)(6:4:6(A,,/4C/4G/4)(G/4C/4A,,/4)(6:4:6(A,,/4C/4G/4)(G/4C/4A,,/4) :| %100
 (6:4:6(A,/4D,/4F/4)(F/4D,/4A,/4)(6:4:6(A,/4D,/4F/4)(F/4D,/4A,/4)(6:4:6(A,/4D,/4F/4)(F/4D,/4A,/4) (6:4:6(A,,/4C/4G/4)(G/4C/4A,,/4)(6:4:6(A,,/4C/4G/4)(G/4C/4A,,/4)(6:4:6(A,,/4C/4G/4)(G/4C/4A,,/4) | %101
 (6:4:6(A,/4D,/4F/4)(F/4D,/4A,/4)(6:4:6(A,/4D,/4F/4)(F/4D,/4A,/4)(6:4:6(A,/4D,/4F/4)(F/4D,/4A,/4) (6:4:6(A,,/4C/4G/4)(G/4C/4A,,/4)(6:4:6(A,,/4C/4G/4)(G/4C/4A,,/4)(6:4:6(A,,/4C/4G/4)(G/4C/4A,,/4) || %102
 (D,/4F,/4).F,/4.F,/4(F,/4A,/4).A,/4.A,/4(A,/4D/4).D/4.D/4[K:treble] (D/4F/4).F/4.F/4(F/4A/4).A/4.A/4(A/4d/4).d/4.d/4 | %103
 (d/4F/4).F/4.F/4(F/4A/4).A/4.A/4(A/4d/4).d/4.d/4 (d/4f/4).f/4.f/4(f/4a/4).a/4.a/4(a/4d'/4).d'/4.d'/4 | %104
!ff! .d'/.a/.d'/.a/.d'/.a/ .d'/[K:bass]!>!A,/!>!D/!>!A,/!>!D/!>!A,/ | %105
 !>!D[K:treble][Af][Af] [Af][K:bass]!>![D,A,]!>![D,A,] | !>!!fermata![D,A,]3- [D,A,] z2 |] %107

